X: 15901
T: Grand Canal, The
R: reel
M: 4/4
K: Gmajor
|:"^am"ABcA "^em"GEED|GEAE GEED|"^am"ABcA GEED|"G"DEGB"D"A2AG|
"^am"ABcA "^em"GEEF|"G"G2GA "C"GEEG|"^am"AB (3cBA "^em"GEEB|"^am"cd (3edc "G"d2cd|
"^am"eaag "G"ed d2|"C"cdeg gedg|"^am"eaag "C"edcd|"^am"edcA"^dm"d2cd|
"^am"eaag "^dm"ed d2|"C"cdeg "^em"gfdf|"C"ef (3gfe"G"d2cd|"^am"edcA "G"d2dc:|

